src/lib/packages/icons/src/assets/line/forward.svg

<svg width="24" height="24" viewBox="0 0 24 24" fill="none" xmlns="http://www.w3.org/2000/svg">
<path d="M20.72 9.86879L15.609 5.83192C14.794 5.18892 13.71 5.07086 12.775 5.52186C11.835 5.97786 11.251 6.91278 11.251 7.96278V9.49696L6.60901 5.83094C5.79401 5.18794 4.71002 5.06989 3.77502 5.52089C2.83502 5.97689 2.25098 6.9118 2.25098 7.9618V16.0348C2.25098 17.0848 2.83502 18.02 3.77502 18.476C4.15102 18.658 4.55097 18.747 4.94897 18.747C5.53897 18.747 6.12201 18.5499 6.60901 18.1649L11.251 14.4989V16.0338C11.251 17.0838 11.835 18.019 12.775 18.475C13.151 18.657 13.551 18.746 13.949 18.746C14.539 18.746 15.122 18.549 15.609 18.164L20.72 14.1268C21.374 13.6098 21.75 12.833 21.75 11.996C21.75 11.159 21.374 10.3858 20.72 9.86879ZM10.79 12.954L5.67896 16.9909C5.31495 17.2799 4.84795 17.3308 4.42896 17.1288C4.00396 16.9228 3.75 16.515 3.75 16.038V7.96498C3.75 7.48698 4.00396 7.07991 4.42896 6.87391C4.59795 6.79191 4.77495 6.75184 4.94995 6.75184C5.20795 6.75184 5.46196 6.83988 5.67896 7.01088L10.79 11.047C11.082 11.278 11.25 11.6259 11.25 12.0009C11.25 12.3759 11.082 12.723 10.79 12.954ZM19.79 12.954L14.679 16.9909C14.315 17.2799 13.848 17.3308 13.429 17.1288C13.004 16.9228 12.75 16.515 12.75 16.038V7.96498C12.75 7.48698 13.004 7.07991 13.429 6.87391C13.598 6.79191 13.775 6.75184 13.95 6.75184C14.208 6.75184 14.462 6.83988 14.679 7.01088L19.79 11.047C20.082 11.278 20.25 11.6259 20.25 12.0009C20.25 12.3759 20.082 12.723 19.79 12.954Z" fill="currentColor"/>
</svg>

<svg xmlns="http://www.w3.org/2000/svg" width="24" height="24" fill="none"><path fill="currentColor" d="m20.72 9.869-5.111-4.037a2.668 2.668 0 0 0-2.834-.31 2.69 2.69 0 0 0-1.524 2.44v1.535L6.609 5.831a2.668 2.668 0 0 0-2.834-.31 2.69 2.69 0 0 0-1.524 2.44v8.074c0 1.05.584 1.985 1.524 2.441a2.67 2.67 0 0 0 2.834-.311l4.642-3.666v1.535c0 1.05.584 1.985 1.524 2.441a2.67 2.67 0 0 0 2.834-.311l5.111-4.037a2.7 2.7 0 0 0 1.03-2.131c0-.837-.376-1.61-1.03-2.127Zm-9.93 3.085-5.111 4.037a1.16 1.16 0 0 1-1.25.138 1.186 1.186 0 0 1-.679-1.091V7.965c0-.478.254-.885.679-1.091a1.19 1.19 0 0 1 .521-.122c.258 0 .512.088.729.259l5.111 4.036c.292.231.46.579.46.954s-.168.722-.46.953Zm9 0-5.111 4.037a1.16 1.16 0 0 1-1.25.138 1.186 1.186 0 0 1-.679-1.091V7.965c0-.478.254-.885.679-1.091a1.19 1.19 0 0 1 .521-.122c.258 0 .512.088.729.259l5.111 4.036c.292.231.46.579.46.954s-.168.722-.46.953Z"/></svg>
